X: 3305
T: MY SKIFF IS ON THE SHORE
%R: waltz
B: James Kerr "Merry Melodies" v.3 p.33 #305
Z: 2016 John Chambers <jc:trillian.mit.edu>
M: 3/4
L: 1/4
K: G
uB |\
(d>^ce/d/) | (B2d) | gBe | (d2B) |\
(c>Bc/A/) | FAc | ed^c | d2 uB |\
(d>^ce/d/) | (B2d) | gBe | (d2c) |\
(a2g) | fed | "_D.C. to Allegro."cBA | Gz :|

%%sep 1 1 500
%%sep 1 1 500

